static/media/setting.3bfad098.svg

<?xml version="1.0" encoding="UTF-8"?>
<svg xmlns="http://www.w3.org/2000/svg" xmlns:xlink="http://www.w3.org/1999/xlink" width="210px" height="210px" version="1.1" viewBox="0 0 210 210">
<!--Generator: Sketch 52.6 (67491) - http://www.bohemiancoding.com/sketch-->
    <defs>
        <linearGradient id="linearGradient-1" x1="0%" x2="100%" y1="0%" y2="100%">
            <stop offset="0%" stop-color="#EDB3FF"/>
            <stop offset="100%" stop-color="#81B7FF"/>
        </linearGradient>
    </defs>
    <g id="re" fill="none" fill-rule="evenodd" stroke="none" stroke-width="1">
        <g id="x01" fill="url(#linearGradient-1)" fill-rule="nonzero" transform="translate(-282.000000, -2176.000000)">
            <g id="s-&amp;-t" transform="translate(165.000000, 1369.000000)">
                <g id="tool" transform="translate(117.000000, 496.000000)">
                    <g id="settings-work-tool">
                        <g transform="translate(0.000000, 311.000000)">
                            <path id="Shape" d="M209.156877,93.2595167 C208.825093,90.3101487 205.386245,88.093829 202.412677,88.093829 C192.798736,88.093829 184.267584,82.4488104 180.689777,73.7185874 C177.034684,64.776803 179.391524,54.3486245 186.556506,47.776171 C188.811859,45.7144238 189.085874,42.2630855 187.194312,39.8656506 C182.273755,33.6171747 176.681041,27.9729368 170.574647,23.0812639 C168.183457,21.1623792 164.67513,21.429368 162.601673,23.725316 C156.348513,30.650632 145.116245,33.2244981 136.436766,29.602974 C127.404424,25.8034572 121.708662,16.6508922 122.266059,6.826171 C122.449517,3.74018587 120.194164,1.05702602 117.117546,0.698698885 C109.28119,-0.207657993 101.376134,-0.235762082 93.5163569,0.636245353 C90.4748699,0.971933086 88.2195167,3.59185874 88.3217844,6.63881041 C88.6637175,16.3667286 82.8992565,25.3592565 73.9566914,29.0221561 C65.3810409,32.5250186 54.2276208,29.9730112 47.9869517,23.109368 C45.9244238,20.8485502 42.4730855,20.570632 40.0701859,22.4434572 C33.7826766,27.3765056 28.0642751,33.0254275 23.0984387,39.2223792 C21.1615985,41.6315242 21.4465428,45.1234572 23.7245353,47.1961338 C31.0261338,53.8084015 33.3837546,64.3271375 29.5904833,73.3719703 C25.9689591,81.9952416 17.014684,87.5528253 6.76371747,87.5528253 C3.43728625,87.4458736 1.06795539,89.6785874 0.704163569,92.7028996 C-0.218587361,100.584535 -0.229516729,108.615279 0.658884758,116.560929 C0.988327138,119.522788 4.53178439,121.719591 7.53814126,121.719591 C16.6735316,121.486171 25.4443494,127.142119 29.1236431,136.095613 C32.7912268,145.037398 30.4336059,155.459331 23.2576952,162.037249 C21.0132714,164.098996 20.7283271,167.54487 22.6198885,169.942305 C27.4943866,176.150967 33.087881,181.800669 39.2161338,186.732937 C41.6198141,188.669777 45.1172119,188.396543 47.2008178,186.100595 C53.4773978,179.158104 64.7088848,176.588922 73.3540149,180.217472 C82.4089963,184.005279 88.1047584,193.157063 87.5473606,202.987249 C87.3654647,206.074796 89.6317472,208.762639 92.6958736,209.115502 C96.7046097,209.583123 100.737546,209.816543 104.781413,209.816543 C108.619963,209.816543 112.459294,209.605762 116.297844,209.178736 C119.340112,208.843048 121.593903,206.223123 121.491636,203.170706 C121.139554,193.448253 126.914164,184.455725 135.845019,180.799071 C144.478439,177.272788 155.585019,179.85368 161.826468,186.710297 C163.900706,188.966431 167.327844,189.238885 169.744015,187.372305 C176.019814,182.450967 181.726506,176.806729 186.715762,170.592602 C188.651822,168.188922 188.378587,164.691524 186.088885,162.619628 C178.787286,156.007361 176.417955,145.487063 180.211227,136.448476 C183.777323,127.939963 192.399033,122.227026 201.672602,122.227026 L202.970074,122.260595 C205.977993,122.504944 208.745465,120.187918 209.110037,117.117546 C210.034349,109.228885 210.045279,101.205167 209.156877,93.2595167 Z M105.074164,140.123086 C85.7775836,140.123086 70.0814498,124.426952 70.0814498,105.130372 C70.0814498,85.8345725 85.7775836,70.137658 105.074164,70.137658 C124.369963,70.137658 140.066097,85.8345725 140.066097,105.130372 C140.066097,124.426952 124.369963,140.123086 105.074164,140.123086 Z"/>
                        </g>
                    </g>
                </g>
            </g>
        </g>
    </g>
</svg>

<svg xmlns="http://www.w3.org/2000/svg" width="210" height="210"><defs><linearGradient id="a" x1="0%" x2="100%" y1="0%" y2="100%"><stop offset="0%" stop-color="#EDB3FF"/><stop offset="100%" stop-color="#81B7FF"/></linearGradient></defs><path d="M209.157 93.26c-.332-2.95-3.77-5.166-6.744-5.166-9.614 0-18.145-5.645-21.723-14.375-3.655-8.942-1.298-19.37 5.867-25.943a5.826 5.826 0 0 0 .637-7.91 103.81 103.81 0 0 0-16.62-16.785 5.838 5.838 0 0 0-7.972.644c-6.253 6.926-17.486 9.5-26.165 5.878-9.033-3.8-14.728-12.952-14.17-22.777A5.82 5.82 0 0 0 117.116.7a104.737 104.737 0 0 0-23.6-.063 5.838 5.838 0 0 0-5.195 6.003c.342 9.728-5.423 18.72-14.365 22.383-8.576 3.503-19.73.951-25.97-5.913a5.85 5.85 0 0 0-7.917-.666 104.202 104.202 0 0 0-16.972 16.78 5.836 5.836 0 0 0 .627 7.973c7.301 6.612 9.659 17.131 5.865 26.176-3.621 8.623-12.575 14.18-22.826 14.18-3.327-.106-5.696 2.127-6.06 5.15a105.092 105.092 0 0 0-.045 23.859c.33 2.962 3.873 5.159 6.88 5.159 9.135-.234 17.905 5.422 21.585 14.376 3.667 8.941 1.31 19.363-5.866 25.941a5.83 5.83 0 0 0-.638 7.905 104.187 104.187 0 0 0 16.596 16.79 5.834 5.834 0 0 0 7.985-.631c6.276-6.943 17.508-9.512 26.153-5.884 9.055 3.788 14.75 12.94 14.193 22.77a5.827 5.827 0 0 0 5.149 6.129 104.276 104.276 0 0 0 23.602.063 5.838 5.838 0 0 0 5.194-6.008c-.352-9.723 5.422-18.715 14.353-22.372 8.633-3.526 19.74-.945 25.981 5.911a5.862 5.862 0 0 0 7.918.662 104.443 104.443 0 0 0 16.972-16.78 5.825 5.825 0 0 0-.627-7.972c-7.302-6.613-9.671-17.133-5.878-26.172 3.566-8.508 12.188-14.221 21.462-14.221l1.297.034c3.008.244 5.775-2.073 6.14-5.143.924-7.89.935-15.913.047-23.858zm-104.083 46.863c-19.296 0-34.993-15.696-34.993-34.993 0-19.295 15.697-34.992 34.993-34.992 19.296 0 34.992 15.697 34.992 34.992 0 19.297-15.696 34.993-34.992 34.993z" fill="url(#a)"/></svg>
